X:618
T: Sanyue shangcha faleya
N: C2136
O: China,Hubei Xiaogan
S: I, 376]
R: Xiaodiao, Dengdiao, Gusao caicha diao, Madeng]
M: 2/4
L: 1/16
K: G
B2BAG2GE | d2BAG2EG | A3BA4 |
d2BAG2EG | A3BA4 |
G2GED3E | GAGED4 | D3EB4G4
d2BAG2FE | D2B2D4

@@@ Tune index: 7173
